src/assets/bold/lm-ellipse-bold.svg

<svg width="24" height="24" viewBox="0 0 24 24" fill="none" xmlns="http://www.w3.org/2000/svg" fill="currentColor">
<path d="M12 6.4C7.79414 6.4 4.4 8.72877 4.4 12C4.4 15.2712 7.79414 17.6 12 17.6C16.2059 17.6 19.6 15.2712 19.6 12C19.6 8.72877 16.2059 6.4 12 6.4ZM3 12C3 8.13401 7.02944 5 12 5C16.9706 5 21 8.13401 21 12C21 15.866 16.9706 19 12 19C7.02944 19 3 15.866 3 12Z" fill="black"/>
</svg>

<svg xmlns="http://www.w3.org/2000/svg" width="24" height="24" fill="currentColor" viewBox="0 0 24 24">
  <path d="M12 6.4c-4.206 0-7.6 2.329-7.6 5.6 0 3.271 3.394 5.6 7.6 5.6 4.206 0 7.6-2.329 7.6-5.6 0-3.271-3.394-5.6-7.6-5.6ZM3 12c0-3.866 4.03-7 9-7s9 3.134 9 7-4.03 7-9 7-9-3.134-9-7Z"/>
</svg>
